configs/footer-icons/medium.svg

<svg width="24" height="25" viewBox="0 0 24 25" fill="none" xmlns="http://www.w3.org/2000/svg">
<path d="M12 3.59998C16.6392 3.59998 20.4004 7.36117 20.4004 12.0004C20.4004 16.6396 16.6392 20.4008 12 20.4008C7.36081 20.4008 3.59961 16.6396 3.59961 12.0004C3.59961 7.36117 7.36081 3.59998 12 3.59998Z" stroke="#4A5568" stroke-width="1.2"/>
<path d="M12 3.59998C16.6392 3.59998 20.4004 7.36117 20.4004 12.0004C20.4004 16.6396 16.6392 20.4008 12 20.4008C7.36081 20.4008 3.59961 16.6396 3.59961 12.0004C3.59961 7.36117 7.36081 3.59998 12 3.59998Z" stroke="black" stroke-opacity="0.2" stroke-width="1.2"/>
<path fill-rule="evenodd" clip-rule="evenodd" d="M9.37384 9C11.2373 9 12.748 10.5107 12.748 12.3742C12.748 14.2376 11.2373 15.7484 9.37384 15.7484C7.51074 15.7484 6 14.2376 6 12.3742C6 10.5107 7.51074 9 9.37384 9ZM17.4053 9.53291C17.7339 9.53291 18 10.8051 18 12.3742C18 13.9433 17.7339 15.2155 17.4053 15.2155C17.077 15.2155 16.8105 13.9433 16.8105 12.3742C16.8105 10.8051 17.077 9.53291 17.4053 9.53291ZM14.7728 9.26646C15.7157 9.26646 16.4798 10.6578 16.4798 12.3742C16.4798 14.0906 15.7157 15.4819 14.7728 15.4819C13.8299 15.4819 13.0655 14.0906 13.0655 12.3742C13.0655 10.6578 13.8299 9.26646 14.7728 9.26646Z" fill="#4A5568"/>
<path fill-rule="evenodd" clip-rule="evenodd" d="M9.37384 9C11.2373 9 12.748 10.5107 12.748 12.3742C12.748 14.2376 11.2373 15.7484 9.37384 15.7484C7.51074 15.7484 6 14.2376 6 12.3742C6 10.5107 7.51074 9 9.37384 9ZM17.4053 9.53291C17.7339 9.53291 18 10.8051 18 12.3742C18 13.9433 17.7339 15.2155 17.4053 15.2155C17.077 15.2155 16.8105 13.9433 16.8105 12.3742C16.8105 10.8051 17.077 9.53291 17.4053 9.53291ZM14.7728 9.26646C15.7157 9.26646 16.4798 10.6578 16.4798 12.3742C16.4798 14.0906 15.7157 15.4819 14.7728 15.4819C13.8299 15.4819 13.0655 14.0906 13.0655 12.3742C13.0655 10.6578 13.8299 9.26646 14.7728 9.26646Z" fill="black" fill-opacity="0.2"/>
</svg>

<svg xmlns="http://www.w3.org/2000/svg" fill="none" viewBox="0 0 24 25">
  <path stroke="rgba(16, 17, 18, 0.8)" stroke-width="1.2" d="M12 3.6a8.4 8.4 0 1 1 0 16.801A8.4 8.4 0 0 1 12 3.6Z"/>
  <path stroke="rgba(16, 17, 18, 0.8)" stroke-width="1.2" d="M12 3.6a8.4 8.4 0 1 1 0 16.801A8.4 8.4 0 0 1 12 3.6Z"/>
  <path fill="rgba(16, 17, 18, 0.8)" fill-rule="evenodd" d="M9.374 9a3.374 3.374 0 1 1 0 6.748 3.374 3.374 0 0 1 0-6.748Zm8.031.533c.329 0 .595 1.272.595 2.841 0 1.57-.266 2.841-.595 2.841-.328 0-.595-1.272-.595-2.84 0-1.57.267-2.842.595-2.842Zm-2.632-.267c.943 0 1.707 1.392 1.707 3.108 0 1.717-.764 3.108-1.707 3.108-.943 0-1.707-1.391-1.707-3.108 0-1.716.764-3.108 1.707-3.108Z" clip-rule="evenodd"/>
  <path fill="rgba(16, 17, 18, 0.8)" fill-rule="evenodd" d="M9.374 9a3.374 3.374 0 1 1 0 6.748 3.374 3.374 0 0 1 0-6.748Zm8.031.533c.329 0 .595 1.272.595 2.841 0 1.57-.266 2.841-.595 2.841-.328 0-.595-1.272-.595-2.84 0-1.57.267-2.842.595-2.842Zm-2.632-.267c.943 0 1.707 1.392 1.707 3.108 0 1.717-.764 3.108-1.707 3.108-.943 0-1.707-1.391-1.707-3.108 0-1.716.764-3.108 1.707-3.108Z" clip-rule="evenodd"/>
</svg>
